X: 22031
T: Kneebuckle, The
R: jig
M: 6/8
K: Amixolydian
eAA eAA|efe edB|eAA ege|dBA A2 c/d/|
eAA eAA|efe edB|def gfe|dBA A2:|
afa geg|fdf ecA|afa geg|dcB A2 a|
afa geg|fdf ecA|def gfe|dBA A2:|

